app/client/src/assets/icons/blueprintjs/20px/blocked-person.svg

<svg xmlns="http://www.w3.org/2000/svg" xml:space="preserve" viewBox="0 0 20 20"><path fill-rule="evenodd" d="M11.55 15.92c-1.48-.65-1.28-1.05-1.33-1.59-.01-.07-.01-.15-.01-.23.51-.45.92-1.07 1.19-1.78 0 0 .01-.04.02-.05.06-.15.11-.32.15-.48.34-.07.54-.44.61-.78.06-.11.14-.35.17-.62C10.33 9.42 8.92 7.38 8.92 5c0-.3.05-.58.09-.87-.33-.08-.67-.13-.99-.13-.79 0-1.68.25-2.31.73-.61.47-1.07 1.13-1.29 1.86-.05.16-.09.33-.11.5-.12.6-.17 1.51-.17 2.14v.08c-.24.09-.45.32-.49.83-.04.39.12.73.2.87.08.35.28.72.63.78.04.17.09.33.15.48 0 .01.01.02.01.03l.01.01c.27.72.7 1.35 1.22 1.8 0 .07-.01.14-.01.21-.05.54.1.94-1.38 1.59C3 16.56.77 17.26.32 18.31-.15 19.38.04 20 .04 20h15.95s.18-.62-.27-1.67c-.46-1.06-2.69-1.75-4.17-2.41zM14.97 0c-2.78 0-5.03 2.24-5.03 5s2.25 5 5.03 5S20 7.76 20 5s-2.25-5-5.03-5zm-3.03 5c0-1.66 1.35-3 3.02-3 .47 0 .9.11 1.29.3l-4.01 3.99c-.18-.4-.3-.83-.3-1.29zm3.03 3c-.47 0-.9-.11-1.29-.3l4.01-3.99c.19.39.3.82.3 1.29 0 1.66-1.36 3-3.02 3z" clip-rule="evenodd"/></svg>

<?xml version="1.0" encoding="utf-8"?>
<!-- Generator: Adobe Illustrator 18.0.0, SVG Export Plug-In . SVG Version: 6.00 Build 0)  -->
<svg version="1.1" id="Layer_1" xmlns="http://www.w3.org/2000/svg" xmlns:xlink="http://www.w3.org/1999/xlink" x="0px" y="0px"
	 viewBox="0 0 20 20" enable-background="new 0 0 20 20" xml:space="preserve">
<g id="blocked_person_2_">
	<g>
		<path fill-rule="evenodd" clip-rule="evenodd" d="M11.55,15.92c-1.48-0.65-1.28-1.05-1.33-1.59c-0.01-0.07-0.01-0.15-0.01-0.23
			c0.51-0.45,0.92-1.07,1.19-1.78c0,0,0.01-0.04,0.02-0.05c0.06-0.15,0.11-0.32,0.15-0.48c0.34-0.07,0.54-0.44,0.61-0.78
			c0.06-0.11,0.14-0.35,0.17-0.62C10.33,9.42,8.92,7.38,8.92,5c0-0.3,0.05-0.58,0.09-0.87C8.68,4.05,8.34,4,8.02,4
			C7.23,4,6.34,4.25,5.71,4.73C5.1,5.2,4.64,5.86,4.42,6.59c-0.05,0.16-0.09,0.33-0.11,0.5C4.19,7.69,4.14,8.6,4.14,9.23
			c0,0.03,0,0.05,0,0.08C3.9,9.4,3.69,9.63,3.65,10.14c-0.04,0.39,0.12,0.73,0.2,0.87c0.08,0.35,0.28,0.72,0.63,0.78
			c0.04,0.17,0.09,0.33,0.15,0.48c0,0.01,0.01,0.02,0.01,0.03l0.01,0.01c0.27,0.72,0.7,1.35,1.22,1.8c0,0.07-0.01,0.14-0.01,0.21
			c-0.05,0.54,0.1,0.94-1.38,1.59c-1.48,0.65-3.71,1.35-4.16,2.4C-0.15,19.38,0.04,20,0.04,20h15.95c0,0,0.18-0.62-0.27-1.67
			C15.26,17.27,13.03,16.58,11.55,15.92z M14.97,0c-2.78,0-5.03,2.24-5.03,5s2.25,5,5.03,5S20,7.76,20,5S17.75,0,14.97,0z M11.94,5
			c0-1.66,1.35-3,3.02-3c0.47,0,0.9,0.11,1.29,0.3l-4.01,3.99C12.06,5.89,11.94,5.46,11.94,5z M14.97,8c-0.47,0-0.9-0.11-1.29-0.3
			l4.01-3.99c0.19,0.39,0.3,0.82,0.3,1.29C17.99,6.66,16.63,8,14.97,8z"/>
	</g>
</g>
</svg>
